resources/svg/invoice.svg

<svg xmlns="http://www.w3.org/2000/svg" viewBox="0 0 15 15" fill="currentColor"><path d="M10 7.99542V9H8V7.99542H10Z" fill="black"/><path d="M10 6V6.99542H8V6H10Z" fill="black"/><path d="M7 6H5V6.99542H7V6Z" fill="black"/><path d="M7 7.99542H5V9H7V7.99542Z" fill="black"/><path fill-rule="evenodd" clip-rule="evenodd" d="M1 1.5C1 0.671573 1.67157 0 2.5 0H10.7071L14 3.29289V13.5C14 14.3284 13.3284 15 12.5 15H2.5C1.67157 15 1 14.3284 1 13.5V1.5ZM4 4H7V3H4V4ZM11 5H4V10H11V5ZM11 12H8V11H11V12Z" fill="black"/></svg>

<svg xmlns="http://www.w3.org/2000/svg" viewBox="0 0 15 15" fill="currentColor"><path d="M10 7.995V9H8V7.995h2zM10 6v.995H8V6h2zM7 6H5v.995h2V6zm0 1.995H5V9h2V7.995z" fill="currentColor"/><path fill-rule="evenodd" clip-rule="evenodd" d="M1 1.5A1.5 1.5 0 012.5 0h8.207L14 3.293V13.5a1.5 1.5 0 01-1.5 1.5h-10A1.5 1.5 0 011 13.5v-12zM4 4h3V3H4v1zm7 1H4v5h7V5zm0 7H8v-1h3v1z" fill="currentColor"/></svg>
